icons/expectorate_fill.svg

<svg width="48" height="48" viewBox="0 0 48 48" fill="none" xmlns="http://www.w3.org/2000/svg">
<path fill-rule="evenodd" clip-rule="evenodd" d="M24 40C24.4277 40 24.8515 39.9832 25.2708 39.9503C25.4361 40.6046 25.6961 41.2702 26.0995 41.8789C25.4108 41.9589 24.7102 42 24 42C14.0589 42 6 33.9411 6 24C6 14.0589 14.0589 6 24 6C33.9411 6 42 14.0589 42 24C42 24.586 41.972 25.1655 41.9173 25.7371C41.334 25.3681 40.6666 25.1263 39.9669 25.038C39.9888 24.6948 40 24.3487 40 24C40 15.1634 32.8366 8 24 8C15.1634 8 8 15.1634 8 24C8 32.8366 15.1634 40 24 40Z" fill="black"/>
<path d="M30 30C30 32.7614 27.7614 35 25 35C22.2386 35 20 32.7614 20 30C20 27.2386 22.2386 25 25 25C27.7614 25 30 27.2386 30 30Z" fill="black"/>
<path fill-rule="evenodd" clip-rule="evenodd" d="M25 35C27.7614 35 30 32.7614 30 30C30 27.2386 27.7614 25 25 25C22.2386 25 20 27.2386 20 30C20 32.7614 22.2386 35 25 35Z" fill="black"/>
<path d="M39.1069 27.0131C40.5606 26.8729 41.8505 27.8721 41.9881 29.245C42.1256 30.6178 41.0588 31.8444 39.6051 31.9846C37.3021 32.2068 34.75 29.9433 34.75 29.9433C34.75 29.9433 36.8039 27.2353 39.1069 27.0131Z" fill="black"/>
<path d="M27.8157 41.8459C28.666 43.0572 30.2844 43.3642 31.4305 42.5316C32.5765 41.6989 32.8162 40.042 31.9659 38.8307C30.6187 36.9115 27.1963 36.5 27.1963 36.5C27.1963 36.5 26.4685 39.9268 27.8157 41.8459Z" fill="black"/>
<path fill-rule="evenodd" clip-rule="evenodd" d="M27.1963 36.5C27.1963 36.5 27.0628 37.1288 27.016 37.9985C27.0075 38.1558 27.0019 38.321 27.0004 38.4918C26.9909 39.5811 27.1499 40.8975 27.8157 41.8459C28.666 43.0572 30.2844 43.3642 31.4305 42.5316C32.5765 41.6989 32.8162 40.042 31.9659 38.8307C31.3069 37.8919 30.1513 37.3139 29.1427 36.9683C28.9505 36.9024 28.7637 36.845 28.5866 36.7952C27.7932 36.5718 27.1963 36.5 27.1963 36.5Z" fill="black"/>
<path d="M40.1642 34.4119C41.9162 35.4293 42.5426 37.6211 41.5634 39.3074C40.5841 40.9937 38.37 41.536 36.618 40.5186C33.8422 38.9066 32.8396 34.2414 32.8396 34.2414C32.8396 34.2414 37.3885 32.8 40.1642 34.4119Z" fill="black"/>
<path fill-rule="evenodd" clip-rule="evenodd" d="M41.5634 39.3074C42.5426 37.6211 41.9162 35.4293 40.1642 34.4119C37.3885 32.8 32.8396 34.2414 32.8396 34.2414C32.8396 34.2414 33.8422 38.9066 36.618 40.5186C38.37 41.536 40.5841 40.9937 41.5634 39.3074Z" fill="black"/>
<path fill-rule="evenodd" clip-rule="evenodd" d="M17.2411 18.3488C17.5703 17.9651 18.1341 17.8875 18.5547 18.1679L21.5547 20.1679C21.8329 20.3534 22 20.6656 22 21C22 21.3344 21.8329 21.6466 21.5547 21.8321L18.5547 23.8321C18.128 24.1165 17.5554 24.0321 17.2289 23.6367C16.9024 23.2413 16.9279 22.663 17.288 22.2978C18.0121 21.5635 18.113 21.2182 18.1117 21.0378C18.1102 20.8359 17.983 20.4636 17.2619 19.6747C16.9208 19.3015 16.9119 18.7325 17.2411 18.3488Z" fill="black"/>
<path fill-rule="evenodd" clip-rule="evenodd" d="M34.7589 18.3488C34.4297 17.9651 33.8659 17.8875 33.4453 18.1679L30.4453 20.1679C30.1671 20.3534 30 20.6656 30 21C30 21.3344 30.1671 21.6466 30.4453 21.8321L33.4453 23.8321C33.872 24.1165 34.4446 24.0321 34.7711 23.6367C35.0976 23.2413 35.0721 22.663 34.712 22.2978C33.9879 21.5635 33.887 21.2182 33.8883 21.0378C33.8898 20.8359 34.017 20.4636 34.7381 19.6747C35.0792 19.3015 35.0881 18.7325 34.7589 18.3488Z" fill="black"/>
</svg>

<svg
  xmlns="http://www.w3.org/2000/svg"
  width="24"
  height="24"
  viewBox="0 0 24 24"
  fill="none"
  stroke="currentColor"
  stroke-width="2"
  stroke-linecap="round"
  stroke-linejoin="round"
>
  <path
    fill-rule="evenodd"
    d="M24 40q.643 0 1.27-.05c.166.655.426 1.32.83 1.929q-1.035.12-2.1.121c-9.941 0-18-8.059-18-18S14.059 6 24 6s18 8.059 18 18q0 .88-.083 1.737a4.8 4.8 0 0 0-1.95-.699Q40 24.523 40 24c0-8.837-7.163-16-16-16S8 15.163 8 24s7.163 16 16 16"
    clip-rule="evenodd"
  />
  <path d="M30 30a5 5 0 1 1-10 0 5 5 0 0 1 10 0" />
  <path
    fill-rule="evenodd"
    d="M25 35a5 5 0 1 0 0-10 5 5 0 0 0 0 10"
    clip-rule="evenodd"
  />
  <path d="M39.107 27.013c1.454-.14 2.743.86 2.881 2.232s-.93 2.6-2.383 2.74c-2.303.222-4.855-2.042-4.855-2.042s2.054-2.708 4.357-2.93" />
  <path d="M27.816 41.846c.85 1.211 2.468 1.518 3.614.686 1.147-.833 1.386-2.49.536-3.701-1.347-1.92-4.77-2.331-4.77-2.331s-.728 3.427.62 5.346" />
  <path
    fill-rule="evenodd"
    d="M27.196 36.5s-.133.629-.18 1.499q-.012.236-.016.493c-.01 1.09.15 2.406.816 3.354.85 1.211 2.468 1.518 3.614.686 1.147-.833 1.386-2.49.536-3.701-.66-.94-1.815-1.517-2.823-1.863a10 10 0 0 0-.556-.173c-.794-.223-1.39-.295-1.39-.295"
    clip-rule="evenodd"
  />
  <path d="M40.164 34.412c1.752 1.017 2.379 3.21 1.4 4.895-.98 1.687-3.194 2.229-4.946 1.212-2.776-1.612-3.778-6.278-3.778-6.278s4.548-1.441 7.324.17" />
  <path
    fill-rule="evenodd"
    d="M41.563 39.307c.98-1.686.353-3.878-1.399-4.895-2.776-1.612-7.324-.17-7.324-.17s1.002 4.665 3.778 6.277c1.752 1.017 3.966.475 4.945-1.212"
    clip-rule="evenodd"
  />
  <path
    fill-rule="evenodd"
    d="M17.241 18.349a1 1 0 0 1 1.314-.181l3 2a1 1 0 0 1 0 1.664l-3 2a1 1 0 0 1-1.267-1.534c.724-.734.825-1.08.824-1.26-.002-.202-.129-.574-.85-1.363a1 1 0 0 1-.02-1.326"
    clip-rule="evenodd"
  />
  <path
    fill-rule="evenodd"
    d="M34.759 18.349a1 1 0 0 0-1.314-.181l-3 2a1 1 0 0 0 0 1.664l3 2a1 1 0 0 0 1.267-1.534c-.724-.734-.825-1.08-.824-1.26.002-.202.129-.574.85-1.363a1 1 0 0 0 .02-1.326"
    clip-rule="evenodd"
  />
</svg>
